icons/lines/user-octagon.svg

<svg xmlns="http://www.w3.org/2000/svg" width="24" height="24" viewBox="0 0 24 24" fill="none" stroke="currentColor" stroke-width="2" stroke-linecap="round" stroke-linejoin="round" >
  <path d="M21.0802 8.58003V15.42C21.0802 16.54 20.4802 17.58 19.5102 18.15L13.5702 21.58C12.6002 22.14 11.4002 22.14 10.4202 21.58L4.48016 18.15C3.51016 17.59 2.91016 16.55 2.91016 15.42V8.58003C2.91016 7.46003 3.51016 6.41999 4.48016 5.84999L10.4202 2.42C11.3902 1.86 12.5902 1.86 13.5702 2.42L19.5102 5.84999C20.4802 6.41999 21.0802 7.45003 21.0802 8.58003Z"/>
  <path d="M11.9999 11.0001C13.2867 11.0001 14.3299 9.95687 14.3299 8.67004C14.3299 7.38322 13.2867 6.34009 11.9999 6.34009C10.7131 6.34009 9.66992 7.38322 9.66992 8.67004C9.66992 9.95687 10.7131 11.0001 11.9999 11.0001Z"/>
  <path d="M16 16.6601C16 14.8601 14.21 13.4001 12 13.4001C9.79 13.4001 8 14.8601 8 16.6601"/>
  </svg>

<svg xmlns="http://www.w3.org/2000/svg" width="24" height="24" viewBox="0 0 24 24" fill="none" stroke="currentColor" stroke-width="2" stroke-linecap="round" stroke-linejoin="round">
  <path d="M16 16.66c0-1.8-1.79-3.26-4-3.26s-4 1.46-4 3.26" />
  <path d="M21.08 15.42a3.17 3.17 0 0 1-1.57 2.73l-5.94 3.43a3.16 3.16 0 0 1-3.15 0l-5.94-3.43a3.15 3.15 0 0 1-1.57-2.73V8.58a3.17 3.17 0 0 1 1.57-2.73l5.94-3.43a3.16 3.16 0 0 1 3.15 0l5.94 3.43a3.16 3.16 0 0 1 1.57 2.73z" />
  <circle cx="12" cy="8.67" r="2.33" />
</svg>
